X: 10043
T: Dick Harmon's
R: reel
M: 4/4
K: Gdorian
|:DG (3GGG DG (3GGG|DGFA BGAF|DFFE EFFG|Acfd cAGF|
DG (3GGG DG (3GGG|DGFA Bcde|f2 df cAFA|1 BGAF DGGF:|2 BGAF DGGA||
|:dgga gfde|fdcB AF (3FFF|CDFG AFAc|fdcB AFFA|
dgga gfde|fgaf gfde|f2 df cAFA|1 BGAF DGGA:|2 BGAF DGGF||

